X: 851
T: The first Night in America
N:"Collected by J.O'Neill"
B:O'Neill's 851
Z:Transcribed by Dan G. Petersen, dangp@post6.tele.dk
M:6/8
L:1/8
K:G
D|GFG AFD|GFG Bcd|efg gdB|ABG AFD|
GFG AFD|GFG Bcd|efg dBA|BGG G2:|
d|gfg bge|dcd ecA|Bdg gfg|abg afd|
gfg bge|dcd ecA|Bdg dBA|BGG G2:|


